online-zoo/assets/images/logo-online-zoo.svg

<svg width="59" height="42" viewBox="0 0 59 42" fill="none" xmlns="http://www.w3.org/2000/svg">
<path d="M8.64844 18.4297H17.3145V23H1.16016V19.6953L9.59766 8.55078H1.5293V3.98047H17.1211V7.17969L8.64844 18.4297ZM19.1602 13.3145C19.1602 11.416 19.5293 9.72852 20.2676 8.25195C21.0059 6.76367 22.0664 5.62109 23.4492 4.82422C24.832 4.02734 26.4551 3.62891 28.3184 3.62891C31.166 3.62891 33.4102 4.51367 35.0508 6.2832C36.6914 8.04102 37.5117 10.4375 37.5117 13.4727V13.6836C37.5117 16.6484 36.6855 19.0039 35.0332 20.75C33.3926 22.4844 31.166 23.3516 28.3535 23.3516C25.6465 23.3516 23.4727 22.543 21.832 20.9258C20.1914 19.2969 19.3066 17.0938 19.1777 14.3164L19.1602 13.3145ZM25.084 13.6836C25.084 15.4414 25.3594 16.7305 25.9102 17.5508C26.4609 18.3711 27.2754 18.7812 28.3535 18.7812C30.4629 18.7812 31.541 17.1582 31.5879 13.9121V13.3145C31.5879 9.9043 30.498 8.19922 28.3184 8.19922C26.3379 8.19922 25.2656 9.66992 25.1016 12.6113L25.084 13.6836ZM39.375 13.3145C39.375 11.416 39.7441 9.72852 40.4824 8.25195C41.2207 6.76367 42.2812 5.62109 43.6641 4.82422C45.0469 4.02734 46.6699 3.62891 48.5332 3.62891C51.3809 3.62891 53.625 4.51367 55.2656 6.2832C56.9062 8.04102 57.7266 10.4375 57.7266 13.4727V13.6836C57.7266 16.6484 56.9004 19.0039 55.248 20.75C53.6074 22.4844 51.3809 23.3516 48.5684 23.3516C45.8613 23.3516 43.6875 22.543 42.0469 20.9258C40.4062 19.2969 39.5215 17.0938 39.3926 14.3164L39.375 13.3145ZM45.2988 13.6836C45.2988 15.4414 45.5742 16.7305 46.125 17.5508C46.6758 18.3711 47.4902 18.7812 48.5684 18.7812C50.6777 18.7812 51.7559 17.1582 51.8027 13.9121V13.3145C51.8027 9.9043 50.7129 8.19922 48.5332 8.19922C46.5527 8.19922 45.4805 9.66992 45.3164 12.6113L45.2988 13.6836Z" fill="#333333"/>
<path d="M1.45703 35.1572C1.45703 34.208 1.6416 33.3643 2.01074 32.626C2.37988 31.8818 2.91016 31.3105 3.60156 30.9121C4.29297 30.5137 5.10449 30.3145 6.03613 30.3145C7.45996 30.3145 8.58203 30.7568 9.40234 31.6416C10.2227 32.5205 10.6328 33.7188 10.6328 35.2363V35.3418C10.6328 36.8242 10.2197 38.002 9.39355 38.875C8.57324 39.7422 7.45996 40.1758 6.05371 40.1758C4.7002 40.1758 3.61328 39.7715 2.79297 38.9629C1.97266 38.1484 1.53027 37.0469 1.46582 35.6582L1.45703 35.1572ZM4.41895 35.3418C4.41895 36.2207 4.55664 36.8652 4.83203 37.2754C5.10742 37.6855 5.51465 37.8906 6.05371 37.8906C7.1084 37.8906 7.64746 37.0791 7.6709 35.4561V35.1572C7.6709 33.4521 7.12598 32.5996 6.03613 32.5996C5.0459 32.5996 4.50977 33.335 4.42773 34.8057L4.41895 35.3418ZM16.0982 30.4902L16.1949 31.6064C16.8511 30.7451 17.7564 30.3145 18.9107 30.3145C19.9009 30.3145 20.6392 30.6104 21.1255 31.2021C21.6177 31.7939 21.8726 32.6846 21.8902 33.874V40H18.9195V33.9971C18.9195 33.5166 18.8228 33.165 18.6295 32.9424C18.4361 32.7139 18.0845 32.5996 17.5748 32.5996C16.9947 32.5996 16.564 32.8281 16.2828 33.2852V40H13.3209V30.4902H16.0982ZM28.1027 40H25.132V26.5H28.1027V40ZM34.4997 40H31.529V30.4902H34.4997V40ZM31.3532 28.0381C31.3532 27.6162 31.5055 27.2705 31.8102 27.001C32.1149 26.7314 32.5104 26.5967 32.9968 26.5967C33.4831 26.5967 33.8786 26.7314 34.1833 27.001C34.488 27.2705 34.6403 27.6162 34.6403 28.0381C34.6403 28.46 34.488 28.8057 34.1833 29.0752C33.8786 29.3447 33.4831 29.4795 32.9968 29.4795C32.5104 29.4795 32.1149 29.3447 31.8102 29.0752C31.5055 28.8057 31.3532 28.46 31.3532 28.0381ZM40.4924 30.4902L40.5891 31.6064C41.2454 30.7451 42.1506 30.3145 43.3049 30.3145C44.2952 30.3145 45.0334 30.6104 45.5198 31.2021C46.012 31.7939 46.2668 32.6846 46.2844 33.874V40H43.3137V33.9971C43.3137 33.5166 43.217 33.165 43.0237 32.9424C42.8303 32.7139 42.4788 32.5996 41.969 32.5996C41.3889 32.5996 40.9582 32.8281 40.677 33.2852V40H37.7151V30.4902H40.4924ZM53.9734 40.1758C52.5145 40.1758 51.3338 39.7422 50.4314 38.875C49.5291 38.002 49.0779 36.8682 49.0779 35.4736V35.2275C49.0779 34.2549 49.2566 33.3965 49.6141 32.6523C49.9773 31.9082 50.5047 31.334 51.1961 30.9297C51.8875 30.5195 52.7078 30.3145 53.657 30.3145C54.993 30.3145 56.0477 30.7305 56.8211 31.5625C57.5945 32.3887 57.9813 33.543 57.9813 35.0254V36.1768H52.0926C52.198 36.71 52.4295 37.1289 52.7869 37.4336C53.1443 37.7383 53.6072 37.8906 54.1756 37.8906C55.1131 37.8906 55.8455 37.5625 56.3729 36.9062L57.7264 38.5059C57.3572 39.0156 56.8328 39.4229 56.1531 39.7275C55.4793 40.0264 54.7527 40.1758 53.9734 40.1758ZM53.6395 32.5996C52.7723 32.5996 52.2566 33.1738 52.0926 34.3223H55.0809V34.0938C55.0926 33.6191 54.9725 33.2529 54.7205 32.9951C54.4686 32.7314 54.1082 32.5996 53.6395 32.5996Z" fill="#333333"/>
</svg>

<svg width="59" height="42" fill="none" xmlns="http://www.w3.org/2000/svg"><path d="M8.648 18.43h8.666V23H1.16v-3.305L9.598 8.551H1.529V3.98h15.592v3.2L8.648 18.43zm10.512-5.115c0-1.899.37-3.586 1.108-5.063.738-1.488 1.798-2.63 3.181-3.428 1.383-.797 3.006-1.195 4.87-1.195 2.847 0 5.091.885 6.732 2.654 1.64 1.758 2.46 4.154 2.46 7.19v.21c0 2.965-.826 5.32-2.478 7.067-1.64 1.734-3.867 2.602-6.68 2.602-2.707 0-4.88-.809-6.521-2.426-1.64-1.63-2.525-3.832-2.654-6.61l-.018-1.002zm5.924.369c0 1.757.275 3.046.826 3.867.55.82 1.365 1.23 2.444 1.23 2.109 0 3.187-1.623 3.234-4.869v-.598c0-3.41-1.09-5.115-3.27-5.115-1.98 0-3.052 1.47-3.216 4.412l-.018 1.073zm14.291-.37c0-1.898.37-3.585 1.107-5.062.739-1.488 1.8-2.63 3.182-3.428 1.383-.797 3.006-1.195 4.87-1.195 2.847 0 5.091.885 6.732 2.654 1.64 1.758 2.46 4.154 2.46 7.19v.21c0 2.965-.826 5.32-2.478 7.067-1.64 1.734-3.867 2.602-6.68 2.602-2.707 0-4.88-.809-6.521-2.426-1.64-1.63-2.525-3.832-2.654-6.61l-.018-1.002zm5.924.37c0 1.757.275 3.046.826 3.867.55.82 1.365 1.23 2.443 1.23 2.11 0 3.188-1.623 3.235-4.869v-.598c0-3.41-1.09-5.115-3.27-5.115-1.98 0-3.053 1.47-3.217 4.412l-.017 1.073zM1.457 35.157c0-.949.185-1.793.554-2.531.369-.744.9-1.315 1.59-1.714.692-.398 1.503-.598 2.435-.598 1.424 0 2.546.443 3.366 1.328.82.878 1.23 2.077 1.23 3.594v.106c0 1.482-.412 2.66-1.238 3.533-.82.867-1.934 1.3-3.34 1.3-1.354 0-2.44-.403-3.261-1.212-.82-.815-1.263-1.916-1.327-3.305l-.009-.5zm2.962.185c0 .879.138 1.523.413 1.933.275.41.683.616 1.222.616 1.054 0 1.593-.812 1.617-2.435v-.299c0-1.705-.545-2.557-1.635-2.557-.99 0-1.526.735-1.608 2.206l-.01.536zm11.68-4.852l.096 1.116c.656-.86 1.561-1.292 2.716-1.292.99 0 1.728.296 2.214.888.493.592.748 1.483.765 2.672V40h-2.97v-6.003c0-.48-.097-.832-.29-1.055-.194-.228-.546-.342-1.055-.342-.58 0-1.011.228-1.292.685V40H13.32v-9.51h2.777zM28.102 40h-2.971V26.5h2.97V40zm6.397 0h-2.971v-9.51h2.97V40zm-3.147-11.962c0-.422.152-.768.457-1.037.305-.27.7-.404 1.187-.404.486 0 .882.134 1.186.404.305.27.457.615.457 1.037 0 .422-.152.768-.457 1.037-.304.27-.7.405-1.186.405-.487 0-.882-.135-1.187-.405a1.322 1.322 0 01-.457-1.037zm9.14 2.452l.096 1.116c.656-.86 1.562-1.292 2.716-1.292.99 0 1.728.296 2.215.888.492.592.747 1.483.764 2.672V40h-2.97v-6.003c0-.48-.097-.832-.29-1.055-.194-.228-.545-.342-1.055-.342-.58 0-1.01.228-1.292.685V40h-2.962v-9.51h2.777zm13.48 9.686c-1.459 0-2.64-.434-3.542-1.301-.902-.873-1.353-2.007-1.353-3.401v-.246c0-.973.179-1.831.536-2.576a3.955 3.955 0 011.582-1.722c.692-.41 1.512-.616 2.461-.616 1.336 0 2.39.416 3.164 1.248.773.827 1.16 1.981 1.16 3.463v1.152h-5.888c.105.533.336.952.694 1.257.357.304.82.457 1.389.457.937 0 1.67-.328 2.197-.985l1.353 1.6c-.369.51-.893.917-1.573 1.221-.674.3-1.4.449-2.18.449zM53.64 32.6c-.867 0-1.382.574-1.546 1.722h2.988v-.228c.012-.475-.109-.841-.36-1.099-.252-.264-.613-.395-1.081-.395z" fill="#333"/></svg>
